src/assets/icons/thumbs-up.svg

<svg width="14" height="14" viewBox="0 0 14 14" fill="none" xmlns="http://www.w3.org/2000/svg">
<g id="thumbs-up">
<g clip-path="url(#clip0_156_4710)">
<path id="Vector" d="M13.5767 5.0384C13.2351 4.6328 12.7335 4.4 12.2007 4.4H8.97349V2.2C8.97349 0.9864 7.98949 0 6.70709 0C6.14949 0 5.64469 0.334399 5.42229 0.851999L3.39349 5.6H1.89989C0.851893 5.6 -0.000106812 6.4504 -0.000106812 7.496V12.112C-0.000106812 13.1536 0.851893 14 1.89989 14H3.18069H4.39029H11.1495C12.0215 14 12.7655 13.3752 12.9199 12.512L13.9727 6.512L13.9735 6.5104C14.0647 5.9824 13.9199 5.4464 13.5767 5.0384ZM1.89989 12.8008C1.51429 12.8008 1.19989 12.492 1.19989 12.1128V7.4968C1.19989 7.1136 1.51429 6.8008 1.89989 6.8008H3.18869L3.18149 12.8008H1.89989ZM11.7375 12.3024C11.6863 12.5904 11.4383 12.8 11.1487 12.8H4.38949V6.324L6.52549 1.3256C6.55749 1.2496 6.62949 1.2008 6.77909 1.2008C7.32789 1.2008 7.77349 1.6496 7.77349 2.2008V5.6008H12.2007C12.3815 5.6008 12.5439 5.676 12.6583 5.812C12.7743 5.9504 12.8207 6.1256 12.7895 6.3056L11.7375 12.3024Z" fill="black"/>
</g>
</g>
<defs>
<clipPath id="clip0_156_4710">
<rect width="14" height="14" fill="white"/>
</clipPath>
</defs>
</svg>

<svg xmlns="http://www.w3.org/2000/svg" fill="none" viewBox="0 0 14 14"><g clip-path="url(#a)"><path fill="#000" d="M13.577 5.038A1.8 1.8 0 0 0 12.2 4.4H8.973V2.2C8.973.986 7.99 0 6.707 0a1.4 1.4 0 0 0-1.285.852L3.393 5.6H1.9A1.9 1.9 0 0 0 0 7.496v4.616C0 13.154.852 14 1.9 14h9.25c.871 0 1.615-.625 1.77-1.488l1.053-6V6.51a1.8 1.8 0 0 0-.396-1.472M1.9 12.801a.695.695 0 0 1-.7-.688V7.497a.7.7 0 0 1 .7-.696h1.289l-.008 6zm9.838-.499a.6.6 0 0 1-.59.498H4.39V6.324l2.136-4.998c.032-.076.104-.125.254-.125.549 0 .994.449.994 1v3.4h4.428a.597.597 0 0 1 .589.705z"/></g><defs><clipPath id="a"><path fill="#fff" d="M0 0h14v14H0z"/></clipPath></defs></svg>
